svgs/sharp-solid/users-medical.svg

<svg xmlns="http://www.w3.org/2000/svg" viewBox="0 0 640 512"><!--! Font Awesome Pro 6.5.2 by @fontawesome - https://fontawesome.com License - https://fontawesome.com/license (Commercial License) Copyright 2024 Fonticons, Inc. --><path d="M144 0a80 80 0 1 1 0 160A80 80 0 1 1 144 0zM512 0a80 80 0 1 1 0 160A80 80 0 1 1 512 0zM48 192H196c-2.6 10.2-4 21-4 32c0 38.2 16.8 72.5 43.3 96H0L48 192zM640 320H608V288H576 512 480v32H404.7c26.6-23.5 43.3-57.8 43.3-96c0-11-1.4-21.8-4-32H592l48 128zM480 480v32H128l48-160H416v32 64 32h32 32zM224 224a96 96 0 1 1 192 0 96 96 0 1 1 -192 0zm288 96h64v64h64v64H576v64H512V448H448V384h64V320z"/></svg>

<svg xmlns="http://www.w3.org/2000/svg" viewBox="0 0 640 512"><!--! Font Awesome Pro 6.6.0 by @fontawesome - https://fontawesome.com License - https://fontawesome.com/license (Commercial License) Copyright 2024 Fonticons, Inc. --><path d="M144 0a80 80 0 1 1 0 160A80 80 0 1 1 144 0zM512 0a80 80 0 1 1 0 160A80 80 0 1 1 512 0zM48 192l148 0c-2.6 10.2-4 21-4 32c0 38.2 16.8 72.5 43.3 96L0 320 48 192zM640 320l-32 0 0-32-32 0-64 0-32 0 0 32-75.3 0c26.6-23.5 43.3-57.8 43.3-96c0-11-1.4-21.8-4-32l148 0 48 128zM480 480l0 32-352 0 48-160 240 0 0 32 0 64 0 32 32 0 32 0zM224 224a96 96 0 1 1 192 0 96 96 0 1 1 -192 0zm288 96l64 0 0 64 64 0 0 64-64 0 0 64-64 0 0-64-64 0 0-64 64 0 0-64z"/></svg>
